X:1
T:Jämtlandssången
R:Marsch
O:Jämtland
M:C
L:1/8
K:Gm
D | DG GG GA B(A/G/) | ^FA AA AB c(B/A/) | B2GG GA BA/G/ | AD DD D3 D |
DG GG GA B(A/G/) | ^FA AA AB cB/A/ | Bd B(A/G/) Ac A(G/^F/) | G2 GA/B/ G4 |
|: d2 dd dc/d/ ed | d>c ccc3A | B2BB BA/B/ dB | BA AA A3 F |
d2 dd dc/d/ ed | d>c ccc3A | Bd B(A/G/) Ac A(G/^F/) | G2 GA/B/ G4 :|

